src/assets/outline/LockSlash.svg

<svg width="24" height="24" viewBox="0 0 24 24"  xmlns="http://www.w3.org/2000/svg">
<path d="M12.0001 19.2498C10.9801 19.2498 10.0401 18.7898 9.42005 17.9798C9.17005 17.6498 9.23005 17.1798 9.56005 16.9298C9.89005 16.6798 10.3601 16.7398 10.6101 17.0698C10.9401 17.5098 11.4501 17.7498 12.0001 17.7498C12.9601 17.7498 13.7501 16.9598 13.7501 15.9998C13.7501 15.6098 13.6301 15.2398 13.3901 14.9398C13.1401 14.6098 13.2001 14.1398 13.5301 13.8898C13.8601 13.6398 14.3301 13.6998 14.5801 14.0298C15.0201 14.5998 15.2501 15.2798 15.2501 15.9998C15.2501 17.7898 13.7901 19.2498 12.0001 19.2498Z" />
<path d="M17 22.75H7C6.63 22.75 6.28 22.74 5.95 22.72C5.54 22.7 5.22 22.34 5.24 21.93C5.26 21.52 5.61 21.22 6.03 21.22C6.33 21.24 6.65 21.24 6.99 21.24H16.99C20.56 21.24 21.24 20.56 21.24 16.99V14.99C21.24 11.48 20.5 10.91 17.95 10.76C17.65 10.74 17.33 10.74 16.99 10.74H7C3.43 10.74 2.75 11.42 2.75 14.99V16.99C2.75 18.73 2.95 19.76 3.41 20.32C3.67 20.64 3.62 21.12 3.29 21.37C2.97 21.63 2.5 21.58 2.24 21.25C1.54 20.4 1.25 19.16 1.25 17V15C1.25 10.59 2.59 9.25 7 9.25H17C17.37 9.25 17.72 9.26 18.04 9.28C22 9.5 22.75 11.46 22.75 15V17C22.75 21.41 21.41 22.75 17 22.75Z" />
<path d="M6 10.75C5.59 10.75 5.25 10.41 5.25 10V8C5.25 5.1 5.95 1.25 12 1.25C16.07 1.25 18.18 2.58 18.64 5.44C18.71 5.85 18.43 6.23 18.02 6.3C17.61 6.37 17.23 6.09 17.16 5.68C16.91 4.16 16.12 2.75 12 2.75C7.64 2.75 6.75 4.85 6.75 8V10C6.75 10.41 6.41 10.75 6 10.75Z" />
<path d="M1.99994 22.7499C1.80994 22.7499 1.61994 22.6799 1.46994 22.5299C1.17994 22.2399 1.17994 21.7599 1.46994 21.4699L21.4699 1.46994C21.7599 1.17994 22.2399 1.17994 22.5299 1.46994C22.8199 1.75994 22.8199 2.23994 22.5299 2.52994L2.52994 22.5299C2.37994 22.6799 2.18994 22.7499 1.99994 22.7499Z" />
</svg>

<?xml version="1.0" encoding="UTF-8"?>
<svg width="24" height="24" viewBox="0 0 24 24" xmlns="http://www.w3.org/2000/svg">
 <path d="m12 19.25c-1.02 0-1.96-0.46-2.58-1.27-0.25-0.33-0.19-0.8 0.14-1.05s0.80005-0.19 1.05 0.14c0.33 0.44 0.84 0.68 1.39 0.68 0.96 0 1.75-0.79 1.75-1.75 0-0.39-0.12-0.76-0.36-1.06-0.25-0.33-0.19-0.8 0.14-1.05s0.8-0.19 1.05 0.14c0.44 0.57 0.67 1.25 0.67 1.97 0 1.79-1.46 3.25-3.25 3.25z"/>
 <path d="m17 22.75h-10c-0.37 0-0.72-0.01-1.05-0.03-0.41-0.02-0.73-0.38-0.71-0.79s0.37-0.71 0.79-0.71c0.3 0.02 0.62 0.02 0.96 0.02h10c3.57 0 4.25-0.68 4.25-4.25v-2c0-3.51-0.74-4.08-3.29-4.23-0.3-0.02-0.62-0.02-0.96-0.02h-9.99c-3.57 0-4.25 0.68-4.25 4.25v2c0 1.74 0.2 2.77 0.66 3.33 0.26 0.32 0.21 0.8-0.12 1.05-0.32 0.26-0.79 0.21-1.05-0.12-0.7-0.85-0.99-2.09-0.99-4.25v-2c0-4.41 1.34-5.75 5.75-5.75h10c0.37 0 0.72 0.01 1.04 0.03 3.96 0.22 4.71 2.18 4.71 5.72v2c0 4.41-1.34 5.75-5.75 5.75z"/>
 <path d="m6 10.75c-0.41 0-0.75-0.34-0.75-0.75v-2c0-2.9 0.7-6.75 6.75-6.75 4.07 0 6.18 1.33 6.64 4.19 0.07 0.41-0.21 0.79-0.62 0.86s-0.79-0.21-0.86-0.62c-0.25-1.52-1.04-2.93-5.16-2.93-4.36 0-5.25 2.1-5.25 5.25v2c0 0.41-0.34 0.75-0.75 0.75z"/>
 <path d="m1.9999 22.75c-0.19 0-0.38-0.07-0.53-0.22-0.29-0.29-0.29-0.77 0-1.06l20-20c0.29-0.29 0.77-0.29 1.06 0s0.29 0.77 0 1.06l-20 20c-0.15 0.15-0.34 0.22-0.53 0.22z"/>
</svg>
